Adwaita++/status/16/bluetooth-active.svg

<svg height="16" width="16" xmlns="http://www.w3.org/2000/svg">
  <g fill="#474747">
    <path d="m6.984 0a1 1 0 0 0 -.984 1v3.586l-1.293-1.293a1 1 0 1 0 -1.414 1.414l2.707 2.707v1.172l-2.707 2.707a1 1 0 1 0 1.414 1.414l1.293-1.293v3.586a1 1 0 0 0 1.707.707l4-4a1 1 0 0 0 0-1.414l-2.293-2.293 2.293-2.293a1 1 0 0 0 0-1.414l-4-4a1 1 0 0 0 -.723-.293zm1.016 3.414 1.586 1.586-1.586 1.586zm0 6 1.586 1.586-1.586 1.586z"/>
    <path d="m3 3h1v1h-1zm0 9h1v1h-1zm3 3h1v1h-1zm0-15h1v1h-1z"/>
  </g>
</svg>

<svg xmlns="http://www.w3.org/2000/svg" width="16" height="16">
    <g fill="#474747">
        <path d="M6.984 0A1 1 0 0 0 6 1v3.586L4.707 3.293a1 1 0 1 0-1.414 1.414L6 7.414v1.172l-2.707 2.707a1 1 0 1 0 1.414 1.414L6 11.414V15a1 1 0 0 0 1.707.707l4-4a1 1 0 0 0 0-1.414L9.414 8l2.293-2.293a1 1 0 0 0 0-1.414l-4-4A1 1 0 0 0 6.984 0zM8 3.414L9.586 5 8 6.586zm0 6L9.586 11 8 12.586z" style="line-height:normal;font-variant-ligatures:normal;font-variant-position:normal;font-variant-caps:normal;font-variant-numeric:normal;font-variant-alternates:normal;font-feature-settings:normal;text-indent:0;text-align:start;text-decoration-line:none;text-decoration-style:solid;text-decoration-color:#000;text-transform:none;text-orientation:mixed;shape-padding:0;isolation:auto;mix-blend-mode:normal" color="#000" font-weight="400" font-family="sans-serif" white-space="normal" overflow="visible"/>
        <path d="M3 3h1v1H3zM3 12h1v1H3zM6 15h1v1H6zM6 0h1v1H6z"/>
    </g>
</svg>
